X: 1
T: Randy Miller's Reel
C: Bob McQuillen 1977
B: Bob's Note Book 9 #74
Z: John Chambers <jc:trillian.mit.edu>
M: C|
L: 1/8
K: Am
cB \
| "Am"A2ag    edcd |     eAAG    A2cB |     A2ag    edcd |  "G"egga g2cB |
| "Am"A2Ac "G"B2Bd | "Am"cdec "G"d2ef | "Am"eaag "G"edcB | "Am"c2A2 A2 :|
|: cd \
| "Am"eAAe eagf | eAAG ABcd | eAAe eagf |  "G"efga   gecd |
| "Am"eAAe eagf | eAAG ABcd | eagf edcA | "Em"EAAG "Am"A2 :|
